usr/share/icons/biglinux-icons-material/symbolic/devices/bluetooth-symbolic.svg

<svg width="16" height="16" version="1.1" xmlns="http://www.w3.org/2000/svg">
 <path d="m7.3223 0.032622c-0.19404 0.073773-0.32231 0.25977-0.32231 0.46736v6.3284l-2.1911-1.7216c-0.21714-0.1706-0.53146-0.13289-0.70207 0.08425s-0.13289 0.53146 0.08425 0.70207l2.6814 2.1068-2.6814 2.1069c-0.21714 0.1706-0.25486 0.4849-0.08425 0.702 0.17061 0.2172 0.48493 0.2549 0.70207 0.0843l2.1911-1.7216v6.3284c0 0.2076 0.12827 0.3936 0.32231 0.4674s0.41348 0.02 0.5514-0.1352l4-4.5c0.09159-0.103 0.13658-0.2393 0.12431-0.3767-0.01227-0.1373-0.0807-0.2635-0.18911-0.3486l-3.3178-2.6069 3.3178-2.6068c0.10841-0.08518 0.17684-0.21135 0.18911-0.34867 0.01227-0.13733-0.03272-0.27362-0.12431-0.37667l-4-4.5c-0.13792-0.15516-0.35736-0.20895-0.5514-0.13518zm0.67769 8.8532 2.7733 2.179-2.7733 3.12zm0-1.7718v-5.299l2.7733 3.12z" fill="#dedede"/>
</svg>

<svg xmlns="http://www.w3.org/2000/svg" width="16" height="16"><path fill="#dedede" d="M7.322.033A.5.5 0 0 0 7 .5v6.328L4.809 5.107a.5.5 0 0 0-.618.786L6.872 8l-2.68 2.107a.5.5 0 1 0 .617.786L7 9.172V15.5a.5.5 0 0 0 .874.332l4-4.5a.5.5 0 0 0-.065-.725L8.49 8l3.318-2.607a.5.5 0 0 0 .065-.725l-4-4.5a.5.5 0 0 0-.552-.135zM8 8.886l2.773 2.179L8 14.185zm0-1.772V1.815l2.773 3.12z"/></svg>
